X:1531
L:1/8
M:4/4
K:C
[M:4/4][K:A] ee[Q:1/8=280]A | (3Bcd eg fdeA | (3Bcd ef gfga | (3Bcd eg fdeA | gedB A2 A :| ^g | 
 a2 ea fAed | cABA cee^g | a2 ea fdea | gedB A2 A :|

